X: 22
T:Merrily Kiss the Quaker (#98)
M:6/8
L:1/8
S:Rice-Walsh manuscript
K:G
D|GAB DED|cBA BGE|GAB DED|ABA BGE|
GAB DED|cBA BGE|GAB DED G3 G2||
A|BBB BAG|ABA GBd|efe edB|egf/2a/2 gfe|
def gfe|dBG AGE|GAB DED|G3 G2||

